ubuntu-mono-light/status/24/account-logged-in.svg

<?xml version="1.0" encoding="UTF-8" standalone="no"?>
<!-- Created with Inkscape (http://www.inkscape.org/) -->

<svg
   xmlns:dc="http://purl.org/dc/elements/1.1/"
   xmlns:cc="http://creativecommons.org/ns#"
   xmlns:rdf="http://www.w3.org/1999/02/22-rdf-syntax-ns#"
   xmlns:svg="http://www.w3.org/2000/svg"
   xmlns="http://www.w3.org/2000/svg"
   version="1.0"
   width="24"
   height="24"
   id="svg3172">
  <metadata
     id="metadata10">
    <rdf:RDF>
      <cc:Work
         rdf:about="">
        <dc:format>image/svg+xml</dc:format>
        <dc:type
           rdf:resource="http://purl.org/dc/dcmitype/StillImage" />
        <dc:title></dc:title>
      </cc:Work>
    </rdf:RDF>
  </metadata>
  <defs
     id="defs3174" />
  <path
     d="m 12,6 c -3.8639999,0 -7,3.136001 -7,7 0,3.864 3.1359999,6.999999 7,7 3.864,0 7,-3.136 7,-7 0,-3.864 -3.136,-6.9999998 -7,-7 z m 3,2 2,2 -5.5,7.5 -4,-3.5 2,-2 2,2 3.5,-6 z"
     id="path2396-7"
     style="opacity:0.3;fill:#ffffff;fill-opacity:1;fill-rule:nonzero;stroke:none;stroke-width:3;marker:none;visibility:visible;display:inline;overflow:visible;enable-background:accumulate" />
  <path
     d="m 12,4.9991931 c -3.8639999,0 -7,3.1360005 -7,6.9999999 0,3.864 3.1359999,6.999999 7,7 3.864,0 7,-3.136 7,-7 0,-3.8639998 -3.136,-6.9999997 -7,-6.9999999 z m 3,2 2,2 -5.5,7.4999999 -4,-3.5 2,-2 2,2 3.5,-5.9999999 z"
     id="path2396"
     style="fill:#3c3c3c;fill-opacity:1;fill-rule:nonzero;stroke:none;stroke-width:3;marker:none;visibility:visible;display:inline;overflow:visible;enable-background:accumulate" />
  <path
     d="M 7.8544493,12.999193 9.5,11.353642 l 2.054531,2.054531 3.5,-5.9999999 1.618285,1.6182849 -5.200081,7.118286 -3.6182857,-3.145551 z"
     id="path3170"
     style="opacity:0.3;fill:none;stroke:#ffffff;stroke-width:0.5;stroke-linecap:butt;stroke-linejoin:miter;stroke-miterlimit:4;stroke-opacity:1;stroke-dasharray:none" />
</svg>

<?xml version="1.0" encoding="UTF-8" standalone="no"?>
<!-- Created with Inkscape (http://www.inkscape.org/) -->
<svg
   xmlns:svg="http://www.w3.org/2000/svg"
   xmlns="http://www.w3.org/2000/svg"
   version="1.0"
   width="24"
   height="24"
   id="svg3174">
  <defs
     id="defs3176" />
  <g
     id="layer1">
    <path
       d="M 20.021118,13.041696 A 8.6481752,8.6481752 0 1 1 2.7247677,13.041696 A 8.6481752,8.6481752 0 1 1 20.021118,13.041696 z"
       transform="matrix(0.867235,0,0,0.867235,2.1369858,0.6897851)"
       id="path2394"
       style="opacity:0.6;fill:none;fill-opacity:1;fill-rule:nonzero;stroke:#eae3d0;stroke-width:1.15308988;stroke-linecap:round;stroke-linejoin:miter;marker:none;marker-start:none;marker-mid:none;marker-end:none;stroke-miterlimit:4;stroke-dasharray:none;stroke-dashoffset:0;stroke-opacity:1;visibility:visible;display:inline;overflow:visible;enable-background:accumulate" />
    <path
       d="M 12,5 C 8.1360001,5 5,8.1360005 5,12 C 5,15.864 8.1359999,18.999999 12,19 C 15.864,19 19,15.864 19,12 C 19,8.1360001 15.864,5.0000002 12,5 z M 15,7 L 17,9 L 11.5,16.5 L 7.5,13 L 9.5,11 L 11.5,13 L 15,7 z"
       id="path2396"
       style="opacity:1;fill:#3a3935;fill-opacity:1;fill-rule:nonzero;stroke:none;stroke-width:3;stroke-linecap:round;stroke-linejoin:miter;marker:none;marker-start:none;marker-mid:none;marker-end:none;stroke-miterlimit:4;stroke-dasharray:none;stroke-dashoffset:0;stroke-opacity:1;visibility:visible;display:inline;overflow:visible;enable-background:accumulate" />
    <path
       d="M 7.8544493,13 L 9.5,11.354449 L 11.554531,13.40898 L 15.054531,7.40898 L 16.672816,9.0272653 L 11.472735,16.145551 L 7.8544493,13 z"
       id="path3170"
       style="opacity:0.3;fill:none;fill-opacity:1;fill-rule:evenodd;stroke:#000000;stroke-width:0.5;stroke-linecap:butt;stroke-linejoin:miter;stroke-miterlimit:4;stroke-dasharray:none;stroke-opacity:1" />
  </g>
</svg>
